X:1
T: Farewell to Whisky
C:Niel Gow
R:Strathspey
Q: 128
K:Bb
M:4/4
L:1/16
|:D2|B,4 BABd c2G2 G3B|B,3B cBcd f2d2 d3f|g2ab gfed edcB c2d2|B,3B dcBc d2B2 B2D2|
B,4 BABd c2G2 G3B|B,3B cBcd f2d2 d3f|g2ab gfed edcB c2d2|B,3B dcBc d2B2 B2g2|
f3d b3d edcB c2d2|f2d2 b3d f2b2 b3f|g3b f3d edcB c2d2|B,3B dcBc d2B2 B3G|
f3d b3d edcB c2d2|f2d2 b3d f2b2 b3f|g2b2 d3f edcB c2d2|B,3B dcBc d2B2 B2:|
